!!!OTL: Die schoene Magdalena Was geschah an einem Morgen,
!!!ARE: Europa, Mitteleuropa, Deutschland / UdSSR, Ostpreussen, Loschkeim, Spinnstube
!!    Kisitten
!!!YOR: 6, S. 62
!!    1911 gedruckt in Berlin
!!!SCT: Q0125
!!!YEM: Copyright 1995, estate of Helmut Schaffrath.
**kern
*ICvox
*Ivox
*M6/8
*k[f#c#]
*D:
{8A
8A
=1
4d
8d
4e
8e
=2
4.f#
4e}
{8a
=3
4a
8a
8b
8a
8g#
=4
4.a
8r}
{8A
8A
=5
4d
8d
4e
8e
=6
4.f#
4e}
{8a
=7
4a
8a
8b
8a
8g#
=8
4.a
4r}
{8a
=9
8dd
8a
8a
8a
8f#
8d
=10
8.e
16f#
8e
8c#
8B}
{8A
=11
4d
8f#
4e
8g
=12
4.b
8a
8r}
{8g
=13
8f#
8a
8d
8e
8g
8c#
=14
4.d
8r}
==
!!!AGN: Ballade, verbotene Liebe, Flucht
!! Beginn einer weiteren Melodievariante abgedruckt.
!!    Sechste Zeile = refrainartig, auf Wortwiederholungen.
!!!ONB: ESAC (Essen Associative Code) Database: BALLADE
!!!AMT: compound duple
!!!AIN: vox
!!!EED: Helmut Schaffrath
!!!EEV: 1.0
*-
